libs/ui/packages/crypto-icons/src/svg/SPHTX.svg

<svg width="24" height="24" viewBox="0 0 24 24" fill="none">
<path d="M4.5 8.91825V8.65125H10.8127V8.91825H4.5ZM4.5 8.142V7.875H10.8127V8.142H4.5ZM7.1625 16.122V9.45225H7.416V16.122H7.1625ZM7.8975 16.122V9.45225H8.15025V16.122H7.8975ZM19.3215 15.576L16.473 12.5662L16.6515 12.378L19.5 15.387L19.3215 15.576ZM12.3892 7.875L15.2377 10.8847L15.0592 11.073L12.2108 8.064L12.3892 7.875ZM18.8018 16.125L15.9532 13.1152L16.1318 12.9263L18.9802 15.936L18.8018 16.125ZM11.8702 8.424L14.7188 11.433L14.5395 11.622L11.691 8.613L11.8702 8.424ZM15.936 12L16.1152 11.811L19.3215 8.424L19.5 8.613L16.2938 12L16.1152 12.189L15.7748 12.549L15.5955 12.738L12.39 16.125L12.2115 15.936L15.4177 12.549L15.5963 12.36L15.936 12ZM15.5955 11.262L18.8025 7.875L18.981 8.064L15.7748 11.451L15.5963 11.64L15.2557 12L15.0765 12.189L11.871 15.576L11.6917 15.387L14.898 12L15.0765 11.811L15.4177 11.451L15.5955 11.262Z" fill="#00B098"/>
</svg>

<svg width="24" height="24" viewBox="0 0 24 24" fill="none"><path fill="#00b098" d="M4.5 8.918v-.267h6.313v.267zm0-.776v-.267h6.313v.267zm2.662 7.98v-6.67h.254v6.67zm.736 0v-6.67h.252v6.67zm11.424-.546-2.849-3.01.178-.188 2.849 3.009zm-6.933-7.701 2.849 3.01-.179.188-2.848-3.009zm6.413 8.25-2.849-3.01.179-.189 2.848 3.01zM11.87 8.424l2.849 3.009-.18.189-2.848-3.009zM15.936 12l.18-.189 3.206-3.387.178.189L16.294 12l-.179.189-.34.36-.18.189-3.205 3.387-.179-.189 3.207-3.387.178-.189zm-.34-.738 3.206-3.387.179.189-3.206 3.387-.179.189-.34.36-.18.189-3.205 3.387-.18-.189L14.899 12l.178-.189.342-.36z"/></svg>
